X:217
T:Mary McMahon
Z: id:dc-reel-198
M:C
L:1/8
K:D Mixolydian
ag|fde^c d2AG|FGAB cAGc|Adde fded|^cdef g2ag|!
fde^c d2AG|FGAB cAGc|Adde fded|cAGE D2:|!
ag|fefg a3^g|abag fdd2|fefg a2fa|bgaf g2ag|!
fefg a3^g|abag fdd2|bgaf g2ag|fdef g2:|!

